X: 1
T:Laven's Favorite
M:4/4
L:1/8
R:reel
B:Ryan's Mammoth Collection
Z:Contributed by Ray Davies,  ray:davies99.freeserve.co.uk
K:D
vdB"Segno"|:A2FA ABdf|edfe fddB|A2FA ABdB|AFEG FDD2|
A2FA ABdf|edfe fddB|A2FA ABdB|AFEG FDD2::
FAdA FAdA|Beed cAA2|FAdA FAdB|AFEG FDD2|
FAdA FAdA|Beed cAA2|FAAc BAdB|AFEG FDD2"Segno":|
